X:1
T:Böndernas avsked från gästabud
N:efter Ola Olsson i Skarup
M:4/4
L:1/16
O:Blekinge
Q:90 
K:D
R:Marsch
A2Bc |:d4 D3D D4 gfed | a4 A3A A4-A2g2 | f2e2 d2e2 f2a2 g2f2 | e2d2 c2B2 A4 A2Bc | 
d4 D3D D4 gfed | a4 A3A A4-A2g2 | f2a2 f2d2 e2g2 e2c2 |1 d4 d3d d4 A2Bc :|2 d4 d3d d4 defg |
|: a4  a3a a4 bagf | g4 A3A A4-A2g2 | f2e2 d2e2 f2a2 g2f2 | e2d2 c2B2 A4 A2Bc | 
d4 D3D D4 gfed | a4 A3A A4-A2g2 | f2a2 f2d2 e2g2 e2c2 |1 d4 d3d d4 defg :|2 d4 d3d d4 A2Bc |

